X:530
T: "Die Unglueckliche"
N: Z1210
O: Europa, Mitteleuropa, Steiermark
R: Liebes - Lied, verlassene Liebe
M: 3/4
L: 1/8
K: A
 | A2f2f2 | f2ede2 |
G2d2d2 | d2cBc2 |
A2f2f2 | f2ede2 |
G2d2Ad | c6

@@@ Tune index: 10288
